icons/numix/22x22/status/state-information.svg

<?xml version="1.0" encoding="UTF-8" standalone="no"?>
<!-- Created with Inkscape (http://www.inkscape.org/) -->

<svg
   xmlns:dc="http://purl.org/dc/elements/1.1/"
   xmlns:cc="http://creativecommons.org/ns#"
   xmlns:rdf="http://www.w3.org/1999/02/22-rdf-syntax-ns#"
   xmlns:svg="http://www.w3.org/2000/svg"
   xmlns="http://www.w3.org/2000/svg"
   xmlns:sodipodi="http://sodipodi.sourceforge.net/DTD/sodipodi-0.dtd"
   xmlns:inkscape="http://www.inkscape.org/namespaces/inkscape"
   id="svg9065"
   version="1.1"
   inkscape:version="0.91 r"
   width="22"
   height="22"
   sodipodi:docname="state-information.svg">
  <metadata
     id="metadata9071">
    <rdf:RDF>
      <cc:Work
         rdf:about="">
        <dc:format>image/svg+xml</dc:format>
        <dc:type
           rdf:resource="http://purl.org/dc/dcmitype/StillImage" />
        <dc:title />
      </cc:Work>
    </rdf:RDF>
  </metadata>
  <defs
     id="defs9069" />
  <sodipodi:namedview
     pagecolor="#ffffff"
     bordercolor="#666666"
     borderopacity="1"
     objecttolerance="10"
     gridtolerance="10"
     guidetolerance="10"
     inkscape:pageopacity="0"
     inkscape:pageshadow="2"
     inkscape:window-width="1366"
     inkscape:window-height="747"
     id="namedview9067"
     showgrid="true"
     inkscape:zoom="29.5"
     inkscape:cx="10.344099"
     inkscape:cy="10.069758"
     inkscape:window-x="0"
     inkscape:window-y="21"
     inkscape:window-maximized="1"
     inkscape:current-layer="svg9065">
    <inkscape:grid
       type="xygrid"
       id="grid3981" />
  </sodipodi:namedview>
  <g
     transform="matrix(0.06584938,0,0,0.06869972,-11.839726,2.0965445)"
     id="g3003"
     style="fill:#ececec;fill-opacity:1;stroke:none">
    <path
       style="fill:#ececec;fill-opacity:1;stroke:none"
       d="m 7.15625,5.125 c -0.7394262,0 -1.34375,0.6348171 -1.34375,1.40625 0,0.2987722 0.096865,0.5853905 0.25,0.8125 -0.5177565,0.3443344 -0.9036631,0.8776712 -1.09375,1.5 C 4.8764994,8.8327661 4.7825686,8.8125 4.6875,8.8125 3.3330975,8.8125 2.25,9.9619712 2.25,11.375 c 0,1.413029 1.0830975,2.5625 2.4375,2.5625 0.5772863,0 1.1123022,-0.214278 1.53125,-0.5625 0.2564372,0.34732 0.6410314,0.59375 1.09375,0.59375 0.6229024,0 1.1295657,-0.445063 1.3125,-1.03125 0.047298,0.04811 0.106152,0.07984 0.15625,0.125 l 0,-0.90625 -0.46875,0 c -0.6434611,9e-6 -1.2886159,-0.107983 -1.84375,-0.59375 l -0.03125,0 C 5.9887343,11.155826 5.718746,10.493299 5.71875,9.90625 5.718746,9.32862 5.9921211,8.683542 6.4375,8.28125 6.9290864,7.835765 7.5151207,7.7738814 8.09375,7.75 l 0,-0.59375 0,-1.875 C 8.0643957,5.3340229 8.0258802,5.3824482 8,5.4375 7.7697724,5.2424181 7.4759609,5.125 7.15625,5.125 Z M 12.9375,6 l 0,1.15625 c 0,0.2577535 0.004,0.4339632 0,0.59375 l 0.28125,0 0,1.125 0,4.15625 c 0.02713,-0.02527 0.06736,-0.03633 0.09375,-0.0625 C 13.798587,13.593243 14.543816,14 15.375,14 c 0.716951,0 1.366541,-0.29886 1.84375,-0.78125 0.254732,0.368125 0.656558,0.59375 1.125,0.59375 0.77463,0 1.40625,-0.62934 1.40625,-1.4375 0,-0.80816 -0.63162,-1.46875 -1.40625,-1.46875 -0.119612,0 -0.232904,0.0019 -0.34375,0.03125 -0.142884,-1.3869645 -1.257626,-2.46875 -2.625,-2.46875 -0.01062,0 -0.02066,-1.299e-4 -0.03125,0 C 15.298114,7.1193454 14.234967,6.0330803 12.9375,6 Z"
       transform="matrix(15.186172,0,0,14.5561,179.80011,-15.961411)"
       id="circle265"
       inkscape:connector-curvature="0" />
  </g>
  <path
     style="fill:#ececec;fill-opacity:1;stroke:none;stroke-width:1px;stroke-linecap:butt;stroke-linejoin:miter;stroke-opacity:1"
     d="m 8,18 0,-2 2,0 0,-4 -2,0 0,-2 4,0 0,6 2,0 0,2 z"
     id="path3983"
     inkscape:connector-curvature="0" />
  <path
     style="fill:#ececec;fill-opacity:1;stroke:none;stroke-width:1px;stroke-linecap:butt;stroke-linejoin:miter;stroke-opacity:1"
     d="m 10,7 0,2 2,0 0,-2 z"
     id="path4493"
     inkscape:connector-curvature="0" />
</svg>

<?xml version="1.0" encoding="UTF-8" standalone="no"?>
<!-- Created with Inkscape (http://www.inkscape.org/) -->

<svg
   xmlns:dc="http://purl.org/dc/elements/1.1/"
   xmlns:cc="http://creativecommons.org/ns#"
   xmlns:rdf="http://www.w3.org/1999/02/22-rdf-syntax-ns#"
   xmlns:svg="http://www.w3.org/2000/svg"
   xmlns="http://www.w3.org/2000/svg"
   xmlns:sodipodi="http://sodipodi.sourceforge.net/DTD/sodipodi-0.dtd"
   xmlns:inkscape="http://www.inkscape.org/namespaces/inkscape"
   id="svg9065"
   version="1.1"
   inkscape:version="0.48.4 r9939"
   width="22"
   height="22"
   sodipodi:docname="state-information.svg">
  <metadata
     id="metadata9071">
    <rdf:RDF>
      <cc:Work
         rdf:about="">
        <dc:format>image/svg+xml</dc:format>
        <dc:type
           rdf:resource="http://purl.org/dc/dcmitype/StillImage" />
        <dc:title />
      </cc:Work>
    </rdf:RDF>
  </metadata>
  <defs
     id="defs9069" />
  <sodipodi:namedview
     pagecolor="#ffffff"
     bordercolor="#666666"
     borderopacity="1"
     objecttolerance="10"
     gridtolerance="10"
     guidetolerance="10"
     inkscape:pageopacity="0"
     inkscape:pageshadow="2"
     inkscape:window-width="1280"
     inkscape:window-height="998"
     id="namedview9067"
     showgrid="true"
     inkscape:zoom="29.5"
     inkscape:cx="15.339183"
     inkscape:cy="10.069758"
     inkscape:window-x="0"
     inkscape:window-y="0"
     inkscape:window-maximized="1"
     inkscape:current-layer="svg9065">
    <inkscape:grid
       type="xygrid"
       id="grid3981" />
  </sodipodi:namedview>
  <g
     style="fill:#000000;fill-opacity:0.3019608;stroke:none"
     id="use4495"
     transform="matrix(0.06584938,0,0,0.06869972,-11.839726,2.0965445)">
    <path
       id="path4503"
       transform="matrix(15.186172,0,0,14.5561,179.80011,-15.961411)"
       d="m 7.15625,5.125 c -0.7394262,0 -1.34375,0.6348171 -1.34375,1.40625 0,0.2987722 0.096865,0.5853905 0.25,0.8125 -0.5177565,0.3443344 -0.9036631,0.8776712 -1.09375,1.5 C 4.8764994,8.8327661 4.7825686,8.8125 4.6875,8.8125 3.3330975,8.8125 2.25,9.9619712 2.25,11.375 c 0,1.413029 1.0830975,2.5625 2.4375,2.5625 0.5772863,0 1.1123022,-0.214278 1.53125,-0.5625 0.2564372,0.34732 0.6410314,0.59375 1.09375,0.59375 0.6229024,0 1.1295657,-0.445063 1.3125,-1.03125 0.047298,0.04811 0.106152,0.07984 0.15625,0.125 l 0,-0.90625 -0.46875,0 c -0.6434611,9e-6 -1.2886159,-0.107983 -1.84375,-0.59375 l -0.03125,0 C 5.9887343,11.155826 5.718746,10.493299 5.71875,9.90625 5.718746,9.32862 5.9921211,8.683542 6.4375,8.28125 6.9290864,7.835765 7.5151207,7.7738814 8.09375,7.75 l 0,-0.59375 0,-1.875 C 8.0643957,5.3340229 8.0258802,5.3824482 8,5.4375 7.7697724,5.2424181 7.4759609,5.125 7.15625,5.125 z M 12.9375,6 l 0,1.15625 c 0,0.2577535 0.004,0.4339632 0,0.59375 l 0.28125,0 0,1.125 0,4.15625 c 0.02713,-0.02527 0.06736,-0.03633 0.09375,-0.0625 C 13.798587,13.593243 14.543816,14 15.375,14 c 0.716951,0 1.366541,-0.29886 1.84375,-0.78125 0.254732,0.368125 0.656558,0.59375 1.125,0.59375 0.77463,0 1.40625,-0.62934 1.40625,-1.4375 0,-0.80816 -0.63162,-1.46875 -1.40625,-1.46875 -0.119612,0 -0.232904,0.0019 -0.34375,0.03125 -0.142884,-1.3869645 -1.257626,-2.46875 -2.625,-2.46875 -0.01062,0 -0.02066,-1.299e-4 -0.03125,0 C 15.298114,7.1193454 14.234967,6.0330803 12.9375,6 z"
       style="fill:#000000;fill-opacity:0.3019608;stroke:none"
       inkscape:connector-curvature="0" />
  </g>
  <path
     inkscape:connector-curvature="0"
     id="use4497"
     d="m 8,18 0,-2 2,0 0,-4 -2,0 0,-2 4,0 0,6 2,0 0,2 z"
     style="fill:#000000;fill-opacity:0.3019608;stroke:none" />
  <path
     inkscape:connector-curvature="0"
     id="use4499"
     d="m 10,7 0,2 2,0 0,-2 z"
     style="fill:#000000;fill-opacity:0.3019608;stroke:none" />
  <g
     transform="matrix(0.06584938,0,0,0.06869972,-11.839726,1.0965445)"
     id="g3003"
     style="fill:#dcdcdc;fill-opacity:1;stroke:none">
    <path
       style="fill:#dcdcdc;fill-opacity:1;stroke:none"
       d="M 7.15625 5.125 C 6.4168238 5.125 5.8125 5.7598171 5.8125 6.53125 C 5.8125 6.8300222 5.9093653 7.1166405 6.0625 7.34375 C 5.5447435 7.6880844 5.1588369 8.2214212 4.96875 8.84375 C 4.8764994 8.8327661 4.7825686 8.8125 4.6875 8.8125 C 3.3330975 8.8125 2.25 9.9619712 2.25 11.375 C 2.25 12.788029 3.3330975 13.9375 4.6875 13.9375 C 5.2647863 13.9375 5.7998022 13.723222 6.21875 13.375 C 6.4751872 13.72232 6.8597814 13.96875 7.3125 13.96875 C 7.9354024 13.96875 8.4420657 13.523687 8.625 12.9375 C 8.6722975 12.985606 8.731152 13.017343 8.78125 13.0625 L 8.78125 12.15625 L 8.3125 12.15625 C 7.6690389 12.156259 7.0238841 12.048267 6.46875 11.5625 L 6.4375 11.5625 C 5.9887343 11.155826 5.718746 10.493299 5.71875 9.90625 C 5.718746 9.32862 5.9921211 8.683542 6.4375 8.28125 C 6.9290864 7.835765 7.5151207 7.7738814 8.09375 7.75 L 8.09375 7.15625 L 8.09375 5.28125 C 8.0643957 5.3340229 8.0258802 5.3824482 8 5.4375 C 7.7697724 5.2424181 7.4759609 5.125 7.15625 5.125 z M 12.9375 6 L 12.9375 7.15625 C 12.9375 7.4140035 12.941463 7.5902132 12.9375 7.75 L 13.21875 7.75 L 13.21875 8.875 L 13.21875 13.03125 C 13.24588 13.005978 13.286111 12.994918 13.3125 12.96875 C 13.798587 13.593243 14.543816 14 15.375 14 C 16.091951 14 16.741541 13.70114 17.21875 13.21875 C 17.473482 13.586875 17.875308 13.8125 18.34375 13.8125 C 19.11838 13.8125 19.75 13.18316 19.75 12.375 C 19.75 11.56684 19.11838 10.90625 18.34375 10.90625 C 18.224138 10.90625 18.110846 10.908107 18 10.9375 C 17.857116 9.5505355 16.742374 8.46875 15.375 8.46875 C 15.364381 8.46875 15.35434 8.4686201 15.34375 8.46875 C 15.298114 7.1193454 14.234967 6.0330803 12.9375 6 z "
       transform="matrix(15.186172,0,0,14.5561,179.80011,-15.961411)"
       id="circle265" />
  </g>
  <path
     style="fill:#dcdcdc;stroke:none;stroke-width:1px;stroke-linecap:butt;stroke-linejoin:miter;stroke-opacity:1;fill-opacity:1"
     d="m 8,17 0,-2 2,0 0,-4 -2,0 0,-2 4,0 0,6 2,0 0,2 z"
     id="path3983"
     inkscape:connector-curvature="0" />
  <path
     style="fill:#dcdcdc;stroke:none;stroke-width:1px;stroke-linecap:butt;stroke-linejoin:miter;stroke-opacity:1;fill-opacity:1"
     d="m 10,6 0,2 2,0 0,-2 z"
     id="path4493"
     inkscape:connector-curvature="0" />
</svg>
